src/icons/svg/twitch.svg

<?xml version="1.0"?><svg xmlns="http://www.w3.org/2000/svg" width="40" height="40" viewBox="0 0 40 40"><path  d="m20 9.7v9.7h-3.2v-9.7h3.2z m8.9 0v9.7h-3.3v-9.7h3.3z m0 17l5.6-5.7v-17.8h-26.6v23.4h7.3v4.9l4.8-4.9h8.9z m8.9-26.7v22.6l-9.7 9.7h-7.3l-4.8 4.8h-4.9v-4.8h-8.9v-25.8l2.5-6.5h33.1z"></path></svg>

<svg xmlns="http://www.w3.org/2000/svg" width="40" height="40" viewBox="0 0 40 40"><path d="M20 9.7v9.7h-3.2V9.7H20zm8.9 0v9.7h-3.3V9.7h3.3zm0 17l5.6-5.7V3.2H7.9v23.4h7.3v4.9l4.8-4.9h8.9zM37.8 0v22.6l-9.7 9.7h-7.3L16 37.1h-4.9v-4.8H2.2V6.5L4.7 0h33.1z"/></svg>
